assets/icons/icon_edit_profile_ldpi.svg

<svg width="24" height="24" viewBox="0 0 24 24" fill="none"
    xmlns="http://www.w3.org/2000/svg">
    <path d="M16.5 12C17.88 12 18.99 10.88 18.99 9.5C18.99 8.12 17.88 7 16.5 7C15.837 7 15.2011 7.26339 14.7322 7.73223C14.2634 8.20107 14 8.83696 14 9.5C14 10.163 14.2634 10.7989 14.7322 11.2678C15.2011 11.7366 15.837 12 16.5 12ZM9 11C10.66 11 11.99 9.66 11.99 8C11.99 6.34 10.66 5 9 5C7.34 5 6 6.34 6 8C6 9.66 7.34 11 9 11ZM16.5 14C14.67 14 11 14.92 11 16.75V19H22V16.75C22 14.92 18.33 14 16.5 14ZM9 13C6.67 13 2 14.17 2 16.5V19H9V16.75C9 15.9 9.33 14.41 11.37 13.28C10.5 13.1 9.66 13 9 13Z" fill="#4F46E5"/>
</svg>

<svg fill="none" xmlns="http://www.w3.org/2000/svg" viewBox="0 0 24 24"><path d="M16.5 12a2.5 2.5 0 0 0 2.49-2.5 2.5 2.5 0 1 0-4.26 1.77c.47.47 1.1.73 1.77.73M9 11a3 3 0 0 0 2.99-3A3 3 0 1 0 9 11m7.5 3c-1.83 0-5.5.92-5.5 2.75V19h11v-2.25c0-1.83-3.67-2.75-5.5-2.75M9 13c-2.33 0-7 1.17-7 3.5V19h7v-2.25c0-.85.33-2.34 2.37-3.47C10.5 13.1 9.66 13 9 13" fill="#4F46E5"/></svg>
